packages/core/src/svgs/tokens/branded/FCT.svg

<svg width="24" height="24" viewBox="0 0 24 24" fill="none" xmlns="http://www.w3.org/2000/svg">
<path d="M3.69994 6.62966C3.65994 6.84966 3.66994 7.00964 3.78995 7.12965C3.63995 7.38902 3.51994 7.58901 3.40996 7.809C3.51994 7.58901 3.63995 7.38902 3.78995 7.16902C4.12993 7.58901 5.1899 7.58901 6.62986 7.12902C6.79985 7.07902 6.79985 7.45963 6.79985 7.45963C6.79985 7.679 6.75985 7.96899 4.9299 8.22899C4.42991 8.30898 3.69994 8.26898 3.36996 7.88899C3.27677 7.73576 3.23151 7.55816 3.23995 7.37901C3.23995 7.33901 3.23995 7.29901 3.27995 7.20902C3.29933 7.13526 3.32996 7.06465 3.36996 6.99965C3.40996 6.86965 3.48995 6.78966 3.56995 6.65966C3.53995 6.73966 3.44995 6.90965 3.36996 6.99965C3.4112 6.87278 3.47933 6.75716 3.56995 6.65966L3.69994 6.62966ZM3.94993 6.08967C4.00993 5.98967 4.07993 5.89968 4.16993 5.80968L4.03994 5.97969C4.03316 5.98623 4.02649 5.9929 4.01993 5.99968L4.16993 5.80968L4.03994 5.97969C4.00869 6.01094 3.97806 6.04468 3.94993 6.07968V6.08967ZM3.94993 6.08967L3.78995 6.31967C3.78308 6.32613 3.7764 6.33279 3.76994 6.33966C3.73619 6.39216 3.70245 6.44591 3.66994 6.49967L3.94993 6.08967ZM4.8499 5.06971L5.22989 4.74972C5.11112 4.89993 5.02589 5.07381 4.97991 5.2597C4.9299 5.38971 4.9299 5.5197 5.01991 5.5997C5.00986 5.60629 4.99986 5.61295 4.9899 5.61969C5.26989 5.93968 6.18986 5.83969 7.34983 5.3497C7.72809 5.19056 8.09552 5.00685 8.4498 4.79971C8.57979 4.74972 8.74978 4.96972 8.78979 4.99972C8.82979 5.04971 8.86979 5.17971 8.78979 5.2597C8.3698 5.5197 7.89981 5.76969 7.38983 5.93968C5.92988 6.55966 4.75991 6.65966 4.43992 6.25968L4.42991 6.27967C4.37992 6.14968 4.33992 6.06968 4.37992 5.89968C4.37992 5.84968 4.37992 5.80969 4.42991 5.76969C4.46679 5.72031 4.5068 5.67344 4.54992 5.6297C4.48992 5.68594 4.43305 5.74656 4.37992 5.80968C4.37992 5.76969 4.42991 5.68969 4.42991 5.63969C4.50992 5.46969 4.59992 5.3397 4.72991 5.17971L4.80991 5.10971C4.93991 4.92972 5.12989 4.76971 5.30989 4.57973L5.81988 4.15974C5.85675 4.12286 5.89675 4.08974 5.93987 4.05975L5.89987 4.09973C6.01987 3.99974 6.13987 3.92036 6.26986 3.83037H6.28986L6.35986 3.76975C6.96507 3.37355 7.60822 3.03858 8.27979 2.76978C8.38979 2.70041 8.49979 2.65041 8.60979 2.60041L8.42979 2.67041C8.32417 2.71665 8.2173 2.75979 8.1098 2.8004C7.93981 2.8504 7.93981 2.8504 7.60983 3.0204C7.42983 3.1004 7.42983 3.1004 7.13983 3.27039L6.70984 3.53039L6.35986 3.78037C9.12974 2.41041 8.93978 2.47042 8.73978 2.55042C7.53372 2.93567 6.42513 3.57694 5.48989 4.43036C5.39801 4.51785 5.31114 4.61159 5.22989 4.70972C5.0999 4.83971 4.9599 4.94971 4.8499 5.06971ZM2.44998 14.8975C2.44917 14.9332 2.45967 14.9682 2.47998 14.9975C2.50998 15.1107 2.56873 15.2138 2.64997 15.2975L2.41999 14.5975C2.41999 14.8775 2.49999 15.1175 2.64997 15.2975C2.55998 15.0475 2.47998 14.7976 2.42999 14.4975C3.19997 15.5575 6.07986 15.2975 9.75972 13.7382C14.4596 11.7383 18.7495 8.35898 19.3401 6.14968C19.47 5.5997 19.38 5.2197 19.0901 4.91971C19.2901 5.12971 19.5101 5.38971 19.7201 5.5997C19.98 5.89968 20.0201 6.27967 19.8894 6.78966C19.2895 9.02896 14.9296 12.4582 10.0998 14.4876C5.89987 16.3174 2.74997 16.3975 2.43998 14.8975C2.36998 14.6576 2.29998 14.3375 2.22 14.1182C2.25998 14.2382 2.30999 14.3681 2.38999 14.4982L2.41999 14.5876C2.41997 14.5908 2.41997 14.5942 2.41999 14.5975V14.5876L2.44998 14.8975ZM9.30969 2.36042L9.36977 2.34041C10.6397 2.00043 11.4497 2.17042 11.2797 2.89041C11.2397 3.1404 11.0697 3.39039 10.8097 3.65038C10.6098 3.73976 10.1397 3.65038 10.0498 3.57038C10.2598 3.31039 10.3897 3.1004 10.4298 2.93041C10.5597 2.37042 9.94974 2.23043 8.95978 2.48041L8.91978 2.50042L9.30969 2.36042ZM9.23969 2.39042L9.40973 2.34041C9.37663 2.34667 9.34294 2.35292 9.30969 2.36042L9.23969 2.39042ZM2.20999 13.4081V13.4382C2.08999 13.3182 2.04999 13.1582 2.04 12.9682C2.03124 12.8817 2.03124 12.7946 2.04 12.7082C2.0423 12.7882 2.0423 12.8683 2.04 12.9482C2.03112 12.8651 2.03112 12.7814 2.04 12.6982C2.0175 12.4795 2.00437 12.2589 2 12.0382C2 12.2982 2.08999 12.4582 2.16999 12.6382L2.18999 13.0382C2.16999 12.8982 2.16999 12.7582 2.16999 12.6382C5.0099 15.6382 17.7695 7.839 17.8895 4.53973C17.9295 3.93975 17.5896 3.73976 17.4195 3.61038L17.7594 3.81974L18.1895 4.11974C18.5294 4.41973 18.6494 4.83971 18.5294 5.38971C17.9694 7.50901 13.8297 10.7689 9.28972 12.6783C5.68988 14.2175 2.91998 14.4282 2.20999 13.4081ZM2.18999 10.1789L2.24999 9.9189C2.16999 10.259 2.20999 10.5589 2.37999 10.7189V10.7389C2.45999 10.8389 2.57998 10.9083 2.71997 10.9789C2.84998 11.1482 2.75997 11.5789 2.75997 11.5789C2.71997 11.6983 2.67997 11.8788 2.58998 11.8288C2.16999 11.6182 2 11.2789 2.04 10.7684C1.99937 11.0214 2.06062 11.2808 2.20999 11.4883V11.4683C2.09009 11.2706 2.04404 11.0367 2.08 10.8083L2.09999 10.7083C2.08973 10.7408 2.08302 10.7743 2.08 10.8083L2.16999 10.2084L2.24999 9.87894V9.79888L2.18999 10.1789ZM2.80998 9.13901C2.73247 9.30773 2.6756 9.48579 2.63998 9.66895C2.50998 9.49891 2.46998 9.28892 2.50998 9.02896C2.59393 8.709 2.70777 8.39764 2.84998 8.09898C2.80868 8.22409 2.79445 8.35656 2.80824 8.48758C2.82204 8.6186 2.86352 8.7452 2.92996 8.85897L2.90997 8.92897C3.43996 9.62899 5.3699 9.44889 7.84982 8.39898C11.0297 6.99903 13.9497 4.70972 14.3296 3.27039C14.4596 2.72041 14.2896 2.38041 13.8297 2.21042C13.9096 2.17042 13.9096 2.17042 14.1597 2.25042C14.3296 2.30043 14.4596 2.34041 14.5395 2.34041C15.0896 2.55041 15.3095 2.9404 15.1396 3.53039C14.7096 5.13033 11.5397 7.62901 8.05981 9.11903C5.30989 10.259 3.18996 10.469 2.63998 9.66895L2.80998 9.13901ZM9.3498 21.3361C8.92735 21.3667 8.50298 21.3159 8.09981 21.1861C7.84982 21.0567 7.49983 20.9361 7.29982 20.8068C7.80982 21.0168 8.49979 21.0767 9.26974 20.9968C13.7397 20.5567 21.5694 15.8675 22 12.7983L21.96 12.9282C21.91 13.1782 21.8693 13.4781 21.8693 13.6881C21.8693 13.7382 21.8693 13.7783 21.8294 13.8182C21.3293 15.6376 17.7296 18.4769 13.7796 20.1667C12.3835 20.8162 10.8841 21.2155 9.3498 21.3468V21.3361ZM9.8497 19.5968C10.5508 19.3978 11.2418 19.1641 11.9197 18.8968C12.3797 18.7768 12.5497 19.0667 12.5497 19.0667C12.5897 19.1168 12.5897 19.2868 12.3397 19.4068C11.2696 19.8268 10.2897 20.1268 9.43977 20.3067L9.40973 20.3368L9.42971 20.3067C7.9298 20.6167 6.78985 20.5768 6.18986 20.1667C5.98987 19.9967 5.68987 19.7867 5.46989 19.6168C6.15987 20.2067 7.72981 20.1968 9.8497 19.5968ZM4.54992 18.6968C4.36992 18.4769 4.15993 18.2669 4.02994 18.0569C4.19993 18.2568 4.45993 18.5568 4.62992 18.7768C4.6277 18.7536 4.61751 18.7321 4.60109 18.7156C4.58465 18.6992 4.56303 18.689 4.53991 18.6868L4.54992 18.6968ZM11.2797 2.04043C11.5296 2.04043 11.8796 2.00043 12.1297 2.00043C13.0196 2.00043 13.4396 2.34043 13.2697 3.0204C13.0597 3.82037 11.9197 4.97033 10.4298 5.97969C10.1297 6.10968 9.82972 5.72969 9.92976 5.5597C9.92976 5.5197 9.96971 5.5197 9.96971 5.5197C11.2797 4.61973 12.2497 3.64975 12.4697 2.93041C12.6397 2.25042 12.0896 1.96043 11.1097 2.04043H11.2797ZM16.3595 3.0204C16.8696 3.27039 17.0796 3.70038 16.9195 4.32973C16.4095 6.22968 12.6796 9.15898 8.60979 10.8983C7.84982 11.2382 7.08983 11.4883 6.40986 11.6983C6.01987 11.7383 5.97987 11.2382 6.14986 10.9789C6.19987 10.8989 6.23987 10.8989 6.27987 10.8483C6.91984 10.679 7.58982 10.4289 8.3098 10.1289C12.1697 8.47897 15.6896 5.68969 16.1495 3.91038C16.3195 3.27039 16.0696 2.8504 15.5195 2.64041C15.7696 2.76041 16.1095 2.89041 16.3595 3.0204ZM20.7693 7.21964L20.9 7.41963C21.0301 7.759 21.0301 7.759 21.0301 7.92899V7.96899C20.8994 7.92899 20.64 7.41901 20.6 7.20902C20.6165 6.99508 20.556 6.7823 20.4294 6.60904L20.7693 7.20902V7.21964ZM21.6694 9.45895C21.6993 9.65888 21.6993 9.9189 21.6194 10.2189C21.1094 12.0782 17.9295 14.8376 14.0796 16.8175C13.6496 16.9974 13.3996 16.6975 13.4797 16.3975C13.4979 16.3432 13.5266 16.2932 13.5644 16.2503C13.6022 16.2073 13.6482 16.1725 13.6996 16.1475C17.5995 14.1182 20.8593 11.3183 21.37 9.40893C21.4543 9.1183 21.4543 8.80965 21.37 8.51897C21.4893 8.85897 21.6194 9.19894 21.6694 9.45895ZM21.96 11.2382V11.5682C21.96 11.7383 21.96 11.8682 21.9199 12.0782C21.62 13.2282 20.22 14.7075 18.3202 16.1475C18.02 16.3575 17.8494 16.0675 17.8895 15.8476C17.9289 15.7175 18.0008 15.6007 18.0995 15.5075C20.0994 14.0282 21.53 12.5082 21.8294 11.3183C21.8693 11.1083 21.9199 10.8989 21.8693 10.6883L21.96 11.2382ZM4.41055 6.27967C4.36992 6.14968 4.32992 6.06968 4.36992 5.89968C4.32992 6.06968 4.36992 6.14968 4.41993 6.27967H4.41055ZM3.34995 7.87961C3.26272 7.72795 3.22105 7.55437 3.22996 7.37964C3.22996 7.58901 3.22996 7.719 3.35995 7.87961H3.34995ZM18.6095 11.1482C18.6419 11.2401 18.6506 11.3387 18.6349 11.4348C18.6191 11.5309 18.5794 11.6214 18.5195 11.6983C16.2803 13.6257 13.7487 15.1848 11.0197 16.3168C6.73984 18.0968 3.51994 18.2168 3.21996 16.6975C3.18996 16.5675 3.21996 16.6575 3.26996 16.6175C3.26996 16.6575 3.26996 16.8675 3.43996 17.1174C3.39996 17.0375 3.35996 16.9974 3.30995 16.9175C3.26996 16.8675 3.26996 16.8175 3.22996 16.7775C3.13996 16.6575 3.09996 16.4775 3.01997 16.3575C3.81994 17.4174 6.78985 17.2074 10.5997 15.5575C13.32 14.4082 15.8489 12.8508 18.0995 10.939C18.4394 10.7683 18.5695 11.0183 18.6095 11.1482ZM7.89981 18.8968C7.93981 18.9868 7.97981 19.1567 7.80982 19.1968C6.28986 19.4468 5.1899 19.3267 4.67991 18.7768C4.50992 18.5568 4.25992 18.2669 4.07993 18.0569C4.54992 18.6467 5.69988 18.8168 7.34983 18.5568C7.64981 18.5568 7.84982 18.8168 7.89981 18.8968ZM21.2494 15.8075C21.37 15.5575 21.4994 15.1676 21.5893 14.9175C21.0794 16.5675 17.8195 19.1173 14.2596 20.6361C12.0597 21.5667 10.2297 21.906 9.25982 21.606C9.50977 21.696 9.8898 21.7761 10.1898 21.8261C12.8997 22.2461 19.7595 18.8575 21.2494 15.8075ZM19.0494 18.8575C19.0494 18.8968 18.9494 19.0268 18.7894 19.1574C17.8595 19.9168 16.5895 20.6761 15.2696 21.226C14.1696 21.696 13.1997 21.9461 12.4697 21.996H11.4197C12.2597 22.0361 13.4896 21.7361 14.9795 21.1461C16.4108 20.5473 17.7507 19.7499 18.9595 18.7774C18.9994 18.7774 18.9994 18.7274 19.0394 18.7274C19.0394 18.7274 19.0395 18.7774 19.0894 18.7774C19.0894 18.7774 19.0894 18.8168 19.0394 18.8567L19.0494 18.8575ZM2.52061 8.85834C2.52061 8.81834 2.56061 8.73834 2.56061 8.68835L2.90059 7.79837C2.90059 7.92837 2.86059 8.01837 2.8106 8.13836C2.6906 8.34835 2.6106 8.60835 2.5106 8.85834H2.52061Z" fill="#16486F"/>
</svg>

<svg xmlns="http://www.w3.org/2000/svg" width="24" height="24" fill="none" viewBox="0 0 24 24">
    <path fill="#16486F" d="M3.7 6.63c-.04.22-.03.38.09.5-.15.259-.27.459-.38.679.11-.22.23-.42.38-.64.34.42 1.4.42 2.84-.04.17-.05.17.33.17.33 0 .22-.04.51-1.87.77-.5.08-1.23.04-1.56-.34a.9.9 0 0 1-.13-.51c0-.04 0-.08.04-.17a.8.8 0 0 1 .09-.21c.04-.13.12-.21.2-.34-.03.08-.12.25-.2.34a.9.9 0 0 1 .2-.34zm.25-.54c.06-.1.13-.19.22-.28l-.13.17-.02.02.15-.19-.13.17a1 1 0 0 0-.09.1zm0 0-.16.23-.02.02-.1.16zm.9-1.02.38-.32c-.119.15-.204.324-.25.51-.05.13-.05.26.04.34l-.03.02c.28.32 1.2.22 2.36-.27q.568-.24 1.1-.55c.13-.05.3.17.34.2.04.05.08.18 0 .26-.42.26-.89.51-1.4.68-1.46.62-2.63.72-2.95.32l-.01.02c-.05-.13-.09-.21-.05-.38 0-.05 0-.09.05-.13a1.4 1.4 0 0 1 .12-.14q-.09.085-.17.18c0-.04.05-.12.05-.17.08-.17.17-.3.3-.46l.08-.07c.13-.18.32-.34.5-.53l.51-.42a1 1 0 0 1 .12-.1l-.04.04c.12-.1.24-.18.37-.27h.02l.07-.06a11 11 0 0 1 1.92-1c.11-.07.22-.12.33-.17l-.18.07q-.16.07-.32.13c-.17.05-.17.05-.5.22-.18.08-.18.08-.47.25l-.43.26-.35.25c2.77-1.37 2.58-1.31 2.38-1.23a8.8 8.8 0 0 0-3.25 1.88 3 3 0 0 0-.26.28c-.13.13-.27.24-.38.36m-2.4 9.828q0 .054.03.1c.03.113.089.216.17.3l-.23-.7c0 .28.08.52.23.7-.09-.25-.17-.5-.22-.8.77 1.06 3.65.8 7.33-.76 4.7-2 8.99-5.379 9.58-7.588.13-.55.04-.93-.25-1.23.2.21.42.47.63.68.26.3.3.68.17 1.19-.6 2.239-4.96 5.668-9.79 7.698-4.2 1.83-7.35 1.91-7.66.41-.07-.24-.14-.56-.22-.78.04.12.09.25.17.38l.03.09v.01-.01zM9.31 2.36l.06-.02c1.27-.34 2.08-.17 1.91.55-.04.25-.21.5-.47.76-.2.09-.67 0-.76-.08.21-.26.34-.47.38-.64.13-.56-.48-.7-1.47-.45l-.04.02zm-.07.03.17-.05-.1.02zM2.21 13.408v.03c-.12-.12-.16-.28-.17-.47a1.3 1.3 0 0 1 0-.26q.003.12 0 .24a1.2 1.2 0 0 1 0-.25 8 8 0 0 1-.04-.66c0 .26.09.42.17.6l.02.4c-.02-.14-.02-.28-.02-.4 2.84 3 15.6-4.799 15.72-8.098.04-.6-.3-.8-.47-.93l.34.21.43.3c.34.3.46.72.34 1.27-.56 2.119-4.7 5.379-9.24 7.288-3.6 1.54-6.37 1.75-7.08.73m-.02-3.23.06-.26c-.08.341-.04.64.13.8v.02c.08.1.2.17.34.24.13.17.04.6.04.6-.04.12-.08.3-.17.25-.42-.21-.59-.55-.55-1.06a.97.97 0 0 0 .17.72v-.02a.98.98 0 0 1-.13-.66l.02-.1a.5.5 0 0 0-.02.1l.09-.6.08-.33v-.08zm.62-1.039a2.3 2.3 0 0 0-.17.53c-.13-.17-.17-.38-.13-.64a5.3 5.3 0 0 1 .34-.93.93.93 0 0 0 .08.76l-.02.07c.53.7 2.46.52 4.94-.53 3.18-1.4 6.1-3.69 6.48-5.129.13-.55-.04-.89-.5-1.06.08-.04.08-.04.33.04.17.05.3.09.38.09.55.21.77.6.6 1.19-.43 1.6-3.6 4.099-7.08 5.589-2.75 1.14-4.87 1.35-5.42.55zm6.54 12.197a3.3 3.3 0 0 1-1.25-.15c-.25-.13-.6-.25-.8-.38.51.21 1.2.27 1.97.19 4.47-.44 12.3-5.128 12.73-8.198l-.04.13c-.05.25-.09.55-.09.76 0 .05 0 .09-.04.13-.5 1.82-4.1 4.659-8.05 6.349a13.2 13.2 0 0 1-4.43 1.18zm.5-1.74a22 22 0 0 0 2.07-.7c.46-.12.63.17.63.17.04.05.04.22-.21.34-1.07.42-2.05.72-2.9.9l-.03.03.02-.03c-1.5.31-2.64.27-3.24-.14-.2-.17-.5-.38-.72-.55.69.59 2.26.58 4.38-.02m-5.3-.9c-.18-.22-.39-.43-.52-.64.17.2.43.5.6.72a.1.1 0 0 0-.09-.09zM11.28 2.04c.25 0 .6-.04.85-.04.89 0 1.31.34 1.14 1.02-.21.8-1.35 1.95-2.84 2.96-.3.13-.6-.25-.5-.42 0-.04.04-.04.04-.04 1.31-.9 2.28-1.87 2.5-2.59.17-.68-.38-.97-1.36-.89zm5.08.98c.51.25.72.68.56 1.31-.51 1.9-4.24 4.829-8.31 6.568-.76.34-1.52.59-2.2.8-.39.04-.43-.46-.26-.72.05-.08.09-.08.13-.13.64-.169 1.31-.42 2.03-.72 3.86-1.649 7.38-4.438 7.84-6.218.17-.64-.08-1.06-.63-1.27.25.12.59.25.84.38m4.41 4.2.13.2c.13.339.13.339.13.509v.04c-.13-.04-.39-.55-.43-.76a.9.9 0 0 0-.17-.6l.34.6zm.9 2.239c.03.2.03.46-.05.76-.51 1.86-3.69 4.619-7.54 6.599-.43.18-.68-.12-.6-.42a.43.43 0 0 1 .22-.25c3.9-2.03 7.16-4.83 7.67-6.74a1.6 1.6 0 0 0 0-.889c.12.34.25.68.3.94m.29 1.78v.33c0 .17 0 .3-.04.51-.3 1.15-1.7 2.628-3.6 4.069-.3.21-.47-.08-.43-.3a.8.8 0 0 1 .21-.34c2-1.48 3.43-3 3.73-4.19.04-.21.09-.42.04-.63zM4.41 6.278c-.04-.13-.08-.21-.04-.38-.04.17 0 .25.05.38zm-1.06 1.6a.9.9 0 0 1-.12-.5c0 .21 0 .34.13.5zm15.26 3.27a.58.58 0 0 1-.09.55 27.9 27.9 0 0 1-7.5 4.618c-4.28 1.78-7.5 1.9-7.8.38-.03-.13 0-.04.05-.08 0 .04 0 .25.17.5-.04-.08-.08-.12-.13-.2-.04-.05-.04-.1-.08-.14-.09-.12-.13-.3-.21-.42.8 1.06 3.77.85 7.58-.8a29 29 0 0 0 7.5-4.618c.34-.17.47.08.51.21M7.9 18.896c.04.09.08.26-.09.3-1.52.25-2.62.13-3.13-.42-.17-.22-.42-.51-.6-.72.47.59 1.62.76 3.27.5.3 0 .5.26.55.34m13.35-3.09c.12-.25.25-.64.34-.89-.51 1.65-3.77 4.2-7.33 5.72-2.2.93-4.03 1.269-5 .969.25.09.63.17.93.22 2.71.42 9.57-2.968 11.06-6.019m-2.2 3.05c0 .04-.1.17-.26.3-.93.76-2.2 1.52-3.52 2.069-1.1.47-2.07.72-2.8.77h-1.05c.84.04 2.07-.26 3.56-.85a16.5 16.5 0 0 0 3.98-2.369c.04 0 .04-.05.08-.05 0 0 0 .05.05.05 0 0 0 .04-.05.08zM2.52 8.859c0-.04.04-.12.04-.17l.34-.89c0 .13-.04.22-.09.34-.12.21-.2.47-.3.72z"/>
</svg>
